FINK
CUT[SCHWESTERLEIN SCHWESTERLEIN]
REG[Europa, Mitteleuropa, Deutschland]
KEY[F0079  16  A 3/4]
MEL[  -5_.13b___  -5_.13b___
    3b_2_1__-7__  1___0__
    -7b_-7b_3b__5__  5_4_3b_2_3b__
    -7b_-7b_3b__5__  5_4_3b_2_3b__
    3b_.11___  -7_.22___
    3b_2_1__-7__  1___0__ //] >>
FCT[Tanz - Lied; Tod]
